dist/img/svg/product_i_2.svg

<svg width="50" height="50" viewBox="0 0 50 50" fill="none" xmlns="http://www.w3.org/2000/svg">
<path d="M26.2503 28.3333C27.4009 28.3333 28.3337 27.4006 28.3337 26.25C28.3337 25.0994 27.4009 24.1666 26.2503 24.1666C25.0997 24.1666 24.167 25.0994 24.167 26.25C24.167 27.4006 25.0997 28.3333 26.2503 28.3333Z" stroke="#6B3D90" stroke-width="2" stroke-linecap="round" stroke-linejoin="round"/>
<path d="M27.5912 6.66663C32.5409 6.9844 37.2073 9.05499 40.7165 12.4937C48.6496 20.2676 48.6496 33.0623 40.7165 40.8362C32.7833 48.6101 19.7263 48.6101 11.7931 40.8362C8.22935 37.344 6.10609 32.681 5.83301 27.7504M12.172 26.7135C11.6771 26.7469 11.1923 26.8506 10.7281 27.0212C10.2638 27.1918 9.82691 27.4226 9.43093 27.7136M16.3332 36.4609C16.0089 36.8289 15.7392 37.237 15.5344 37.6785C15.3296 38.12 15.1862 38.5884 15.1146 39.0667M26.3077 40.4683C26.3418 40.9533 26.4477 41.4283 26.6218 41.8832C26.7958 42.3381 27.0314 42.7663 27.3284 43.1543M36.2549 36.3907C36.6304 36.7084 37.0469 36.9727 37.4974 37.1734C37.948 37.3741 38.4259 37.5146 38.9141 37.5848M40.3444 26.6165C40.8393 26.583 41.3241 26.4793 41.7883 26.3087C42.2526 26.1415 42.6895 25.9073 43.0855 25.6163M36.1832 16.869C36.5075 16.501 36.7772 16.093 36.982 15.6514C37.1868 15.2099 37.3302 14.7416 37.4019 14.2632M26.2087 12.8616C26.1746 12.3766 26.0688 11.9016 25.8947 11.4467C25.8127 11.2293 25.7137 11.0152 25.6011 10.8111M34.3808 34.6278C38.8697 30.2291 38.8697 23.0975 34.3808 18.6987C29.892 14.3 22.6142 14.3 18.1253 18.6987C13.6365 23.0975 13.6365 30.2291 18.1253 34.6278C22.6142 39.0266 29.892 39.0266 34.3808 34.6278ZM32.0903 32.3833C35.3127 29.2256 35.3127 24.1043 32.0903 20.9466C28.8679 17.7889 23.6417 17.7889 20.4193 20.9466C17.1968 24.1043 17.1968 29.2256 20.4193 32.3833C23.6417 35.541 28.8679 35.541 32.0903 32.3833Z" stroke="#6C757D" stroke-width="2" stroke-linecap="round" stroke-linejoin="round"/>
<path d="M21.9917 24.4019C22.257 24.6551 22.257 25.0645 21.9917 25.3177C21.7264 25.5708 21.2973 25.5708 21.032 25.3177C20.7667 25.0645 20.7667 24.6551 21.032 24.4019C21.2973 24.1487 21.7264 24.1487 21.9917 24.4019ZM25.8075 21.0232C25.5422 21.2764 25.5422 21.6859 25.8075 21.939C26.0728 22.1922 26.5019 22.1922 26.7672 21.939C27.0325 21.6859 27.0325 21.2764 26.7672 21.0232C26.5019 20.7701 26.0728 20.7701 25.8075 21.0232ZM30.5077 24.3238C30.2424 24.5769 30.2424 24.9864 30.5077 25.2395C30.773 25.4927 31.2021 25.4927 31.4674 25.2395C31.7327 24.9864 31.7327 24.5769 31.4674 24.3238C31.2021 24.0706 30.773 24.0706 30.5077 24.3238ZM28.7684 29.7246C28.5031 29.9778 28.5031 30.3872 28.7684 30.6404C29.0338 30.8935 29.4628 30.8935 29.7281 30.6404C29.9934 30.3872 29.9934 29.9778 29.7281 29.7246C29.4628 29.4714 29.0338 29.4714 28.7684 29.7246ZM22.7745 29.7277C22.5092 29.9809 22.5092 30.3903 22.7745 30.6435C23.0398 30.8967 23.4689 30.8967 23.7342 30.6435C23.9995 30.3903 23.9995 29.9809 23.7342 29.7277C23.4689 29.4746 23.0398 29.4746 22.7745 29.7277Z" fill="#6B3D90"/>
<path d="M7.04201 21.2277C7.31845 21.5186 7.31845 21.9909 7.04201 22.2818C6.76558 22.5728 6.31677 22.5728 6.04034 22.2818C5.7639 21.9909 5.7639 21.5186 6.04034 21.2277C6.31677 20.9367 6.76558 20.9367 7.04201 21.2277ZM20.4573 6.05157C20.1809 6.3425 20.1809 6.81482 20.4573 7.10575C20.7338 7.39668 21.1826 7.39668 21.459 7.10575C21.7354 6.81482 21.7354 6.3425 21.459 6.05157C21.1826 5.76064 20.7338 5.76064 20.4573 6.05157Z" fill="#6C757D"/>
<path d="M11.4477 13.9583C11.8021 13.5387 12.174 13.1296 12.5635 12.7416C14.4512 10.8443 16.6968 9.34551 19.167 8.33337M7.11436 16.5398C6.51787 17.1393 6.51787 18.1127 7.11436 18.7157C7.71085 19.3188 8.67927 19.3153 9.27927 18.7157C9.87927 18.1162 9.87576 17.1429 9.27927 16.5398C8.68278 15.9368 7.71436 15.9403 7.11436 16.5398Z" stroke="#6C757D" stroke-width="2" stroke-linecap="round" stroke-linejoin="round"/>
<path d="M3.33303 23.1265L3.39794 15.7236L15.8303 3.39782L23.1175 3.33345C23.7017 3.32667 24.1697 3.79422 24.1663 4.37358L24.1253 8.8797L8.74804 24.126L4.38187 24.1666C3.79766 24.1734 3.32961 23.7059 3.33303 23.1265Z" stroke="#6B3D90" stroke-width="2" stroke-linecap="round" stroke-linejoin="round"/>
</svg>

<svg width="50" height="50" viewBox="0 0 50 50" fill="none" xmlns="http://www.w3.org/2000/svg"><path d="M26.25 28.333a2.083 2.083 0 100-4.166 2.083 2.083 0 000 4.166z" stroke="#6B3D90" stroke-width="2" stroke-linecap="round" stroke-linejoin="round"/><path d="M27.591 6.667c4.95.317 9.616 2.388 13.126 5.827 7.933 7.774 7.933 20.568 0 28.342-7.934 7.774-20.99 7.774-28.924 0-3.564-3.492-5.687-8.155-5.96-13.086m6.339-1.037c-.495.034-.98.138-1.444.308a5.22 5.22 0 00-1.297.693m6.902 8.747a5.067 5.067 0 00-1.218 2.606m11.193 1.401a5.062 5.062 0 001.02 2.686m8.927-6.763c.375.317.792.582 1.242.782.451.201.929.342 1.417.412m1.43-10.969c.495-.033.98-.137 1.444-.307a5.124 5.124 0 001.298-.693m-6.903-8.747a5.065 5.065 0 001.219-2.606m-11.193-1.401a4.917 4.917 0 00-.314-1.415 4.905 4.905 0 00-.294-.636m8.78 23.817a11.104 11.104 0 000-15.93c-4.489-4.398-11.767-4.398-16.256 0a11.104 11.104 0 000 15.93c4.49 4.399 11.767 4.399 16.256 0zm-2.29-2.245a7.973 7.973 0 000-11.436c-3.223-3.158-8.45-3.158-11.672 0a7.973 7.973 0 000 11.436c3.223 3.158 8.449 3.158 11.671 0z" stroke="#6C757D" stroke-width="2" stroke-linecap="round" stroke-linejoin="round"/><path d="M21.992 24.402a.626.626 0 010 .916.701.701 0 01-.96 0 .626.626 0 010-.916.701.701 0 01.96 0zm3.816-3.379a.626.626 0 000 .916.701.701 0 00.96 0 .626.626 0 000-.916.701.701 0 00-.96 0zm4.7 3.3a.626.626 0 000 .916.701.701 0 00.96 0 .626.626 0 000-.915.701.701 0 00-.96 0zm-1.74 5.402a.626.626 0 000 .915.701.701 0 00.96 0 .626.626 0 000-.915.701.701 0 00-.96 0zm-5.994.003a.626.626 0 000 .915.701.701 0 00.96 0 .626.626 0 000-.915.701.701 0 00-.96 0z" fill="#6B3D90"/><path d="M7.042 21.228a.774.774 0 010 1.054.684.684 0 01-1.002 0 .774.774 0 010-1.054.684.684 0 011.002 0zM20.457 6.052a.774.774 0 000 1.054c.277.29.726.29 1.002 0a.774.774 0 000-1.054.684.684 0 00-1.002 0z" fill="#6C757D"/><path d="M11.448 13.958a20.03 20.03 0 017.72-5.625M7.113 16.54a1.547 1.547 0 000 2.176c.597.603 1.565.6 2.165 0 .6-.6.597-1.573 0-2.176a1.525 1.525 0 00-2.165 0z" stroke="#6C757D" stroke-width="2" stroke-linecap="round" stroke-linejoin="round"/><path d="M3.333 23.127l.065-7.403L15.83 3.398l7.287-.065a1.032 1.032 0 011.05 1.04l-.042 4.507L8.748 24.126l-4.366.04a1.032 1.032 0 01-1.049-1.04z" stroke="#6B3D90" stroke-width="2" stroke-linecap="round" stroke-linejoin="round"/></svg>
